packages/assets/static/images/icons/bold/clipboard-text--bold.svg

<svg width="24" height="24" viewBox="0 0 24 24" xmlns="http://www.w3.org/2000/svg">
<path d="M16.625 15.375C16.625 15.6734 16.5065 15.9596 16.2955 16.1705C16.0845 16.3815 15.7984 16.5 15.5 16.5H9.5C9.20163 16.5 8.91548 16.3815 8.7045 16.1705C8.49353 15.9596 8.375 15.6734 8.375 15.375C8.375 15.0767 8.49353 14.7905 8.7045 14.5795C8.91548 14.3686 9.20163 14.25 9.5 14.25H15.5C15.7984 14.25 16.0845 14.3686 16.2955 14.5795C16.5065 14.7905 16.625 15.0767 16.625 15.375ZM15.5 10.5H9.5C9.20163 10.5 8.91548 10.6186 8.7045 10.8295C8.49353 11.0405 8.375 11.3267 8.375 11.625C8.375 11.9234 8.49353 12.2096 8.7045 12.4205C8.91548 12.6315 9.20163 12.75 9.5 12.75H15.5C15.7984 12.75 16.0845 12.6315 16.2955 12.4205C16.5065 12.2096 16.625 11.9234 16.625 11.625C16.625 11.3267 16.5065 11.0405 16.2955 10.8295C16.0845 10.6186 15.7984 10.5 15.5 10.5ZM21.125 4.50004V20.25C21.125 20.7473 20.9275 21.2242 20.5758 21.5759C20.2242 21.9275 19.7473 22.125 19.25 22.125H5.75C5.25272 22.125 4.77581 21.9275 4.42417 21.5759C4.07254 21.2242 3.875 20.7473 3.875 20.25V4.50004C3.875 4.00276 4.07254 3.52584 4.42417 3.17421C4.77581 2.82258 5.25272 2.62504 5.75 2.62504H8.98719C9.4412 2.15093 9.98649 1.77363 10.5902 1.51588C11.1939 1.25812 11.8436 1.12524 12.5 1.12524C13.1564 1.12524 13.8061 1.25812 14.4098 1.51588C15.0135 1.77363 15.5588 2.15093 16.0128 2.62504H19.25C19.7473 2.62504 20.2242 2.82258 20.5758 3.17421C20.9275 3.52584 21.125 4.00276 21.125 4.50004ZM9.90219 5.62504H15.0978C15.0072 5.00067 14.6948 4.4298 14.2178 4.01694C13.7407 3.60409 13.1309 3.37686 12.5 3.37686C11.8691 3.37686 11.2593 3.60409 10.7822 4.01694C10.3052 4.4298 9.99275 5.00067 9.90219 5.62504ZM18.875 4.87504H17.2428C17.3303 5.24365 17.3747 5.62118 17.375 6.00004V6.75004C17.375 7.0484 17.2565 7.33455 17.0455 7.54553C16.8345 7.75651 16.5484 7.87504 16.25 7.87504H8.75C8.45163 7.87504 8.16548 7.75651 7.9545 7.54553C7.74353 7.33455 7.625 7.0484 7.625 6.75004V6.00004C7.62531 5.62118 7.66967 5.24365 7.75719 4.87504H6.125V19.875H18.875V4.87504Z"/>
</svg>

<svg viewBox="0 0 24 24" xmlns="http://www.w3.org/2000/svg" aria-hidden="true" fill="currentColor"><path d="M16.625 15.375A1.125 1.125 0 0 1 15.5 16.5h-6a1.125 1.125 0 1 1 0-2.25h6a1.125 1.125 0 0 1 1.125 1.125M15.5 10.5h-6a1.125 1.125 0 0 0 0 2.25h6a1.125 1.125 0 1 0 0-2.25m5.625-6v15.75a1.875 1.875 0 0 1-1.875 1.875H5.75a1.875 1.875 0 0 1-1.875-1.875V4.5A1.875 1.875 0 0 1 5.75 2.625h3.237a4.864 4.864 0 0 1 7.026 0h3.237A1.875 1.875 0 0 1 21.125 4.5M9.902 5.625h5.196a2.625 2.625 0 0 0-5.196 0m8.973-.75h-1.632q.131.555.132 1.125v.75a1.125 1.125 0 0 1-1.125 1.125h-7.5A1.125 1.125 0 0 1 7.625 6.75V6q0-.57.132-1.125H6.125v15h12.75z"/></svg>
